Sources/FrostedUI/Resources/Icons.xcassets/shieldHalf32.imageset/shield-half-32.svg

<svg width="32" height="32" viewBox="0 0 32 32" fill="none" xmlns="http://www.w3.org/2000/svg" data-fui-icon="true">
  <path
    fill-rule="evenodd"
    clip-rule="evenodd"
    d="M26.3265 6.31752L16.6615 3.09651C16.4485 3.02451 16.2245 2.98853 16.0005 2.98853C15.7785 2.98853 15.5555 3.02351 15.3415 3.09451L5.67451 6.31651C5.54851 6.35851 5.44251 6.43251 5.32951 6.49551C4.67951 6.85851 4.24951 7.52752 4.24951 8.29352V15.8825C4.24951 19.4485 5.78751 22.0795 7.98351 24.1635C8.81751 24.9555 9.75251 25.6705 10.7375 26.3345C10.8515 26.4115 10.9695 26.4845 11.0845 26.5605C11.2775 26.6865 11.4685 26.8145 11.6645 26.9375C12.9885 27.7695 14.3565 28.5075 15.6445 29.2025C15.7555 29.2625 15.8775 29.2925 16.0005 29.2925C16.1235 29.2925 16.2455 29.2625 16.3565 29.2025C21.4325 26.4645 27.7505 23.0565 27.7505 15.8825V8.29352C27.7505 7.39452 27.1775 6.60051 26.3265 6.31651V6.31752ZM26.2505 15.8835C26.2505 22.0135 20.8805 25.0555 16.0005 27.6915V4.48952C16.0625 4.48952 16.1245 4.49952 16.1845 4.51952L25.8515 7.74152C26.0895 7.82152 26.2495 8.04352 26.2495 8.29552V15.8845L26.2505 15.8835Z"
    fill="currentColor"
  />
</svg>

<svg xmlns="http://www.w3.org/2000/svg" width="32" height="32" fill="none" data-fui-icon="true" viewBox="0 0 32 32"><path fill="currentColor" fill-rule="evenodd" d="M26.327 6.318 16.66 3.097a2.07 2.07 0 0 0-1.32-.002L5.676 6.317c-.126.042-.232.116-.345.179-.65.363-1.08 1.032-1.08 1.798v7.589c0 3.566 1.538 6.197 3.734 8.28.834.793 1.769 1.508 2.754 2.171.114.078.232.15.347.227q.286.19.58.377c1.324.832 2.692 1.57 3.98 2.265a.75.75 0 0 0 .712 0c5.076-2.738 11.394-6.146 11.394-13.32v-7.59c0-.898-.574-1.692-1.425-1.976m-.077 9.566c0 6.13-5.37 9.171-10.25 11.808V4.49q.095 0 .184.03l9.668 3.222c.238.08.398.302.398.554z" clip-rule="evenodd"/></svg>
